X:1
T:Prelude Op.6-1
T:Prelude
T:S.Liapounow, Op.6.No.1
C:S.Lyapnov
%%score { ( 1 3 5 ) | ( 2 4 ) }
L:1/8
Q:1/4=120
M:4/4
K:Bb
V:1 treble nm="Piano" snm="Pno."
V:3 treble 
V:5 treble 
V:2 bass 
V:4 bass 
V:1
"^Allegro risoluto（）"!mf! z/[K:bass] (D,/F,/B,/ D/F,/B,/D/) z/ (G,/B,/D/ G/A,/^C/A/) | %1
 z/ (F,/A,/D/ F/G,/D/G/) z/ (E,/G,/E/ D/E,/A,/F/) | %2
 z/[K:bass] (D,/F,/B,/ D/F,/B,/F/) z/ (G,/B,/D/ G/A,/^C/A/) | %3
 z/ (^F,/A,/D/ ^F/G,/D/G/) z/!>(! (E,/G,/C/ E/F,/A,/D/)!>)! | %4
[K:treble]!p! z/ (D/G/B/!<(! d/G/B/g/) z/ (d/g/b/ d'/g/b/[Q:1/4=100]g'/)!<)! | %5
 (=e'/[Q:1/4=120]a/b/d'/ =e/g/b/d/ e/g/A/B/ d/G/B/=E/) | %6
!p! z/ (D/G/B/!<(! d/G/B/g/) z/ (d/g/b/ d'/g/b/[Q:1/4=100]g'/)!<)! | %7
 (_d'/[Q:1/4=120]a/b/d'/ f/g/b/c/ _d/f/A/B/ d/G/B/E/) | %8
!p! z/ (F/B/_d/!<(! f/B/d/b/) z/ (f/b/_d'/ f'/b/d'/[Q:1/4=100]b'/)!<)! | %9
 (g'/[Q:1/4=120]c'/_d'/f'/ g/b/d'/f/ g/b/c/_d/ f/B/d/[Q:1/4=80]G/) | %10
 (_g'/[Q:1/4=120]c'/_d'/g'/ _a/b/d'/f/ _g/b/c/_d/ g/B/d/[Q:1/4=100]_G/) | %11
 [FAf]!p![Q:1/4=120] (F/A/!<(! A,/=E/A/A,/ _E/A/A,/E/ c/F/c/f/)!<)! | %12
!f! z/ (D/F/B/ d/F/B/f/) z/ (G/B/d/ g/A/^c/a/) | z/ (F/A/d/ f/G/d/g/) z/ ((E/G/e/ d/E/A/f/)) | %14
 z/ (D/F/B/ d/F/B/f/) z/ (_G/B/e/ _g/_A/c/_a/) | z/ (F/_A/_d/ f/_G/d/_g/) z/ (=E/B/c/ =e/F/=A/f/) | %16
!mf! z/ (F/B/_d/!<(! f/B/d/b/) z/ (f/b/_d'/ f'/b/d'/[Q:1/4=100]b'/)!<)! | %17
 (g'/[Q:1/4=120]c'/_d'/f'/ g/b/d'/f/ g/b/c/_d/ f/B/d/G/) | %18
!mf! z/ (E/_A/_c/!<(! e/A/c/_a/) z/ (e/a/_c'/ e'/a/c'/[Q:1/4=100]_a'/)!<)! | %19
 (f'/[Q:1/4=120]b/_c'/e'/ f/_a/c'/e/ f/a/B/_c/ e/_A/c/F/) | %20
!mf! (B/B,/_G/B/ B,/F/B/B,/!mf! =E/B/B,/=G/ c/B,/G/c/) | %21
!mf! (_A/_A,/F/A/ A,/!<(!E/A/A,/ D/A/_G,/E/ _G/G,/^C/G/)!<)! | %22
[Q:1/4=108] [F,DF] z!f!"_brillante"[Q:1/4=108]!8va(! b'[Q:1/4=120] x[Q:1/4=108] c''[Q:1/4=120] x[Q:1/4=108] _a'[Q:1/4=120] x | %23
[Q:1/4=108] b'[Q:1/4=120] x[Q:1/4=108] _g'[Q:1/4=120] x[Q:1/4=108] ^g'[Q:1/4=120] x[Q:1/4=108] =e'[Q:1/4=120] x!8va)! | %24
[Q:1/4=108] ^f'[Q:1/4=120] x[Q:1/4=108] =d'[Q:1/4=120] x[Q:1/4=108] =e'[Q:1/4=120] x[Q:1/4=108] =c'[Q:1/4=120] x | %25
 x/[Q:1/4=100] d'[Q:1/4=120] x/ x2!>(! x/[Q:1/4=100] a[Q:1/4=120] x/ x2!>)! | %26
 z/ (D/F/B/ d/F/!<(!B/f/) z/ (=G/B/d/ =g/A/^c/a/)!<)! | d' x x2 =f x x2 | %28
 z/ (d/f/b/!<(! d'/f/b/f'/) z/ (_G/B/e/ _g/_A/c/[Q:1/4=100]_a/)!<)! | %29
!8va(! f''[Q:1/4=120] x x2[Q:1/4=100] =a'[Q:1/4=120] x x2!8va)! | %30
!mf! z (D/F/ [Bd]/F/B/f/) z/ (_G/B/d/ _g/B/[Q:1/4=100][db]) | %31
[Q:1/4=120]!<(! z (B/e/ [_gb]/e/[Q:1/4=110][ge'])[Q:1/4=120] z (e/=a/ e'/f/[Q:1/4=110][af'])!<)! | %32
!f![Q:1/4=120] z (d/f/!<(! [bd']/f/b/[Q:1/4=110]f'/)[Q:1/4=120] z/!8va(! (_g/b/d'/ _g'/b/[Q:1/4=110][d'b']) | %33
!f![Q:1/4=120] z!ff! (b/e'/ [_g'b']/e'/[Q:1/4=110][g'e''])!f![Q:1/4=120] z!ff! (e'/a'/ e''/f'/[Q:1/4=90][a'f''])!<)! | %34
!ff! [dbd'][Q:1/4=120] ([f'b'f'']/d''/ =e'/f'/b'/c'/ d'/f'/a/b/ d'/_g/b/[Q:1/4=90]e/)!8va)! | %35
 f'[Q:1/4=120] x x6[Q:1/4=100] | %36
 [FBdf][K:bass] D x/[K:treble] d d d x/ d'!8va(! x/ (d''/[Q:1/4=120] | b')!8va)! z z2 [dfbd']2 z2 | %38
[Q:1/4=60] !fermata!B,8 |] %39
V:2
!ped! [B,,,B,,]2 [F,,,F,,]2!ped-up!!ped! [=E,,,=E,,]2 [A,,,A,,]2!ped-up! | %1
!ped! [D,,D,]2 [=B,,,=B,,]2!ped-up!!ped! [C,,C,]2 [F,,,F,,]2!ped-up! | %2
!ped! [B,,,B,,]2 [F,,,F,,]2!ped-up!!ped! [=E,,,=E,,]2 [A,,,A,,]2!ped-up! | %3
!ped! [D,,D,]2 [B,,,B,,]2!ped-up!!ped! [C,,C,]2 [D,,D,]2!ped-up! |!ped! z2 (F2 =E2 D2)!ped-up! | %5
!ped! .[C,,,C,,] .G,,.C,.=E, .G,.C .=E z!ped-up! |!ped! z2 (F2 =E2 D2)!ped-up! | %7
!ped! .[E,,,E,,] .B,,._E,.G, .B,._D ._E z!ped-up! |!ped! z2 (_A2 G2 F2)!ped-up! | %9
!ped! .[E,,,E,,] .B,,.E,.G, .B,.E .G z!ped-up! | %10
!ped! .[=E,,,=E,,] .B,,._D,._G, .B,._D ._G z!ped-up!!ped! | z .=B,,.C,.=D, .E,.F,.=G,.A,!ped-up! | %12
!ped! [B,,B,]2 [F,,F,]2!ped-up!!ped! [=E,,=E,]2 [A,,,A,,]2!ped-up! | %13
!ped! [D,,D,]2 [=B,,,=B,,]2!ped-up!!ped! [C,,C,]2 [F,,F,]2!ped-up! | %14
!ped! [B,,B,]2 [F,,F,]2!ped-up!!ped! [E,,E,]2 [_A,,,_A,,]2!ped-up! | %15
!ped! [_D,,_D,]2 [B,,,B,,]2!ped-up!!ped! [C,,C,]2 [F,,,F,,]2!ped-up! | %16
!ped! z2 (_A2 G2 F2)!ped-up! |!ped! .[E,,,E,,] .B,,.E,.G, .B,.E .G z!ped-up! | %18
!ped! z2 (_G2 F2 E2)!ped-up! |!ped! .[_D,,,_D,,] ._A,,._D,.F, ._A,._D .F z!ped-up! | %20
!ped! z!<(! .C,._D,.E,!ped-up!!<)!!ped! .=E,!>(!.C,.=D,.E,!ped-up!!>)! | %21
!ped! .F,.=B,,.C,.^C,!ped-up!!ped! .D, _B,,3-!ped-up! | %22
!ped! B,, z!ped-up![K:treble]!ped! (D/F/f/B/)!ped-up!!ped! (_D/G/_f/B/)!ped-up!!ped! (C/E/e/_A/)!ped-up! | %23
!ped! (_C/=F/__e/_A/)!ped-up!!ped! (B,/_D/_d/_G/)!ped-up!!ped! (A,/^D/=c/^F/)!ped-up!!ped! (^G,/=B,/=B/=E/)!ped-up! | %24
!ped! (=G,/^C/_B/=E/)!ped-up![K:bass]!ped! (^F,/A,/A/D/)!ped-up!!ped! (=F,/=B,/_A/D/)!ped-up!!ped! (=E,/G,/G/C/)!ped-up! | %25
!ped! [F,A,_E_G] z z2!ped-up!!ped! [F,,C,E,A,] z z2!ped-up! | %26
!mf!!ped! [B,,B,]2 [F,,F,]2!ped-up!!ped! [=E,,=E,]2 [A,,,A,,]2!ped-up! | %27
!ped! .[D,,,D,,] .A,,.[D,^F,D] z!ped-up!!ped! .[=F,,,=F,,] .F,,.[_E,A,C] z!ped-up! | %28
!f!!ped! [B,,B,]2 [F,,F,]2!ped-up!!ped! [E,,E,]2 [_A,,,_A,,]2!ped-up! | %29
!ped! .[_D,,,_D,,] ._A,,.[_D,F,_D] z!ped-up!!ped! .[F,,,F,,] .F,,.[E,=A,=D] z!ped-up! | %30
!ped! [B,,B,]2 [_A,,_A,]2!ped-up!!ped! [_G,,_G,]2 [_F,,_F,]2!ped-up! | %31
!ped! [E,,E,]2 [_D,,_D,]2!ped-up!!ped! [_C,,_C,]2 [=F,,,=F,,]2!ped-up! | %32
!ped! [B,,,B,,]2 [_A,,,_A,,]2!ped-up!!ped! [_G,,,_G,,]2 [_F,,,_F,,]2!ped-up! | %33
!ped! [E,,,E,,]2 [_D,,,_D,,]2!ped-up!!ped! [_C,,,_C,,]2 [=F,,,=F,,]2!ped-up! | %34
!ped! .[B,,,,B,,,] .F,,.B,,.D, .F,.B,, .[B,,_G,] z!ped-up! | %35
!ped! .[B,,,B,,] .F,.B,.D .F.B, .[_G,B,E] z!ped-up! | %36
!ped! (B,,,/F,,/B,,/D,/ F,/B,/D/B,/ F,/B,/D/F/[K:treble] B/d/f/b/)!ped-up! | %37
!ped! d' z z2!ped-up![K:bass]!ped! [F,B,DF]2 z2!ped-up! |!ped! !fermata![B,,,B,,]8!ped-up! |] %39
V:3
 x/[K:bass] x15/2 | x4 x3/2 E/ DC/ x/ | x/[K:bass] x15/2 | x4 x3/2 C/ E>D |[K:treble] x8 | %5
 g'/ x3/2 x6 | x8 | g'/ x3/2 x6 | x8 | b'/ x3/2 x6 | b'/ x3/2 x6 | x8 | x8 | x4 x3/2 e/ dc/ x/ | %14
 x8 | x8 | x8 | b'/ x3/2 x6 | x8 | _a'/ x3/2 x6 | x8 | x8 | x2!8va(! x6 | x8!8va)! | x8 | x8 | x8 | %27
 x8 | x8 |!8va(! x8!8va)! | x8 | x8 | x9/2!8va(! x7/2 | x8 | x8!8va)! | x8 | %36
 x[K:bass] x3/2[K:treble] x9/2!8va(! x | x!8va)! x7 | x8 |] %39
V:4
 x8 | x8 | x8 | x8 | [G,,,G,,]8 | x8 | [G,,,G,,]8 | x8 | [A,,,A,,]8 | x8 | x6 x7/4 x/4 | %11
{/F,,,} F,,8 | x8 | x8 | x8 | x8 | [A,,,A,,]8 | x8 | [_A,,,_A,,]8 | x8 | _G,,4 C,,4 | %21
 F,,4 _B,,,2 (E,,=E,, | F,,) z[K:treble] D x _D x C x | _C x B, x =A, x ^G, x | %24
 G, x[K:bass] ^F, x =F, x =E, x | x8 | x8 | x8 | x8 | x8 | x8 | x8 | x8 | x8 | x4 x2 .E,, x | %35
 x4 x2 .E, x | x6[K:treble] x2 | x4[K:bass] x4 | x8 |] %39
V:5
 x/[K:bass] x15/2 | x8 | x/[K:bass] x15/2 | x8 |[K:treble] x8 | x8 | x8 | x8 | x8 | x8 | x8 | x8 | %12
 x8 | x8 | x8 | x8 | x8 | x8 | x8 | x8 | x8 | x8 | %22
 x2!8va(! (b'/f'/b/f'/) (c''/_f'/b/g'/) (_a'/e'/_a/e'/) | %23
 (b'/__e'/_a/=f'/) (_g'/_d'/_b/d'/) (^g'/=c'/^f/^d'/) (=e'/=b/=e/b/)!8va)! | %24
 (^f'/_b/=e/^c'/) (d'/a/=d/a/) (=e'/_a/d/=b/) (=c'/g/c/g/) | %25
 (d/d'/=a/_g/ e/c/A/_G/) (F/f/e/c/ A/F/E/C/) | x8 | %27
 ([d^f]/=e/f/a/ ^c/d/f/!>(!A/) (d/G/A/d/ _E/G/=c/F/)!>)! | x8 | %29
!8va(! ([f'_d'']/=g'/_a'/d''/ e'/f'/!>(!a'/_d'/) (f'/c'/=d'/f'/ g/=a/d'/f/)!8va)!!>)! | [B,D]8 | %31
 [B,E_GB]4 [E=Ae]4 | [DBd]8!8va(! | [Be_gb]4 [e=ae']4 | x8!8va)! | %35
 [fd']/a/b/d'/ =e/f/b/c/ d/f/A/B/ d/_G/B/E/ | %36
 x[K:bass] (F,/B,/ D/[K:treble]F/B/F/ D/F/B/d/ f/b/!8va(!d'/f'/ | b')!8va)! x x2 x4 | x8 |] %39

